X: 100329
T: MONTMORRIS HORNPIPE
R: hornpipe, reel
B: K\"ohler's Violin Repository, v.3, 1885 p.232 #2
F: http://www.archive.org/details/klersviolinrepos03rugg
Z: 2012 John Chambers <jc:trillian.mit.edu>
M: C|
L: 1/8
K: D
uFE |\
D2DE (DE)FG | A2AB (AB)cA | d2de (dc)BA | (BA)GF (EF)GE |
D2DE (DE)FG | A2AB (AB)cB | (Ad)cB (AG)FE | F2D2 D2 :|
|: (ude) |\
(fe)fg (fe)dc | (dc)de (dc)BA | (Bc)de (fd)gf | e2e2 e2(de) |
(fe)fg (fe)dc | (dc)de (dc)BA | (Bc)de (fe)ef | e2d2 d2 :|

%%sep 2 1 500

